cc-by-sa/knowledge/modules/using_type/lessons/introducing_parametric_axes/images/introducing_parametric_axes_3.svg

<svg width="1920" height="1080" fill="none" xmlns="http://www.w3.org/2000/svg"><path d="M165.211 795.076h33.88v99.68h117.04v-99.68h33.88V1030h-33.88V923.036h-117.04V1030h-33.88V795.076Z" fill="#D2E3FC"/><path d="M400.695 778h32.76v133c5.88-7.28 12.88-13.16 21.56-17.64 8.68-4.48 18.2-6.44 29.12-6.44 18.2 0 32.48 5.04 42.56 14.84 10.08 9.8 15.4 26.88 15.4 50.68V1030h-32.76v-77.84c0-13.44-2.8-23.24-8.68-28.84-5.88-5.6-14-8.4-24.64-8.4-9.52 0-17.92 2.52-25.48 7.84-7.56 5.32-13.16 11.76-17.08 19.6V1030h-32.76V778Z" fill="#3C4043"/><path d="M770.037 795.076h32.2v100.52h119.56v-100.52h32.2V1030h-32.2V922.196h-119.56V1030h-32.2V795.076Z" fill="#D2E3FC"/><path d="M1005.79 778h31.08v100.52c6.16-7.28 13.72-13.16 23.24-17.64 9.52-4.48 19.6-6.72 30.52-6.72 16.52 0 29.68 5.04 40.04 14.84s15.4 26.6 15.4 49.84V1030h-31.08V918.56c0-13.72-3.08-23.52-9.24-29.4-6.16-5.88-14.84-8.68-26.04-8.68-9.52 0-18.2 2.52-25.48 7.84-7.28 5.32-13.16 12.04-17.36 20.16V1030h-31.08V778Z" fill="#3C4043"/><path d="M1379 795.076h31.36v100.8h120.4v-100.8h31.36V1030h-31.36V921.916h-120.4V1030H1379V795.076Z" fill="#D2E3FC"/><path d="M1614.48 778H1645v81.76c6.16-7.56 13.72-13.44 22.4-17.92 8.68-4.48 18.76-6.72 29.68-6.72 17.36 0 31.36 5.04 41.72 14.84s15.4 26.32 15.4 49.56V1030h-30.52V899.24c0-13.72-3.08-23.52-9.24-29.68s-14.84-8.96-26.32-8.96c-9.8 0-18.2 2.52-25.76 7.84-7.56 5.32-13.16 12.04-17.36 20.44V1030h-30.52V778ZM168 127.55h32.196v73.071H319.18V127.55h31.075v177.496H319.18v-78.389H200.196v78.389h-31.355L168 127.55Z" fill="#3C4043"/><path d="M400.649 53.923h30.515v101.346a64.658 64.658 0 0 1 21.837-17.918 62.705 62.705 0 0 1 27.996-6.439 57.949 57.949 0 0 1 41.714 14.557 66.061 66.061 0 0 1 12.618 23.234 66.058 66.058 0 0 1 2.501 26.319v110.025h-29.677V194.742a40.878 40.878 0 0 0-8.957-29.676 36.12 36.12 0 0 0-26.038-8.678 42.275 42.275 0 0 0-25.478 7.838 50.392 50.392 0 0 0-17.077 20.438v120.383h-30.515l.561-251.124Z" fill="#D2E3FC"/><path d="M771 71.163h31.636V172.23H923.02V71.163h31.356v234.888H923.02V197.986H802.636v108.065H771V71.163Z" fill="#3C4043"/><path d="M1006.73 53.076h30.51v100.785a65.436 65.436 0 0 1 23.24-17.916 69.665 69.665 0 0 1 30.51-6.72 56.009 56.009 0 0 1 39.76 14.838 67.448 67.448 0 0 1 12.88 23.332 67.355 67.355 0 0 1 2.8 26.502v111.985h-30.52V193.897a39.48 39.48 0 0 0-9.24-27.996 35.875 35.875 0 0 0-12.26-7.136 35.789 35.789 0 0 0-14.06-1.823 42.554 42.554 0 0 0-25.75 7.838 51.226 51.226 0 0 0-17.36 20.437v121.784h-30.51V53.076Z" fill="#D2E3FC"/><path d="M1379 51h31.92v110.305h120.1V51h31.92v255.044h-31.92V187.621H1411.2v118.423h-31.92L1379 51Z" fill="#3C4043"/><path d="M1615.01 53.075h31.08V153.86a64.956 64.956 0 0 1 51.79-24.636 57.34 57.34 0 0 1 41.71 14.838 67.286 67.286 0 0 1 12.74 23.362 67.17 67.17 0 0 1 2.66 26.472v111.985h-30.79V193.896a39.48 39.48 0 0 0-9.24-27.996 35.913 35.913 0 0 0-12.13-7.081 35.801 35.801 0 0 0-13.91-1.878 42.572 42.572 0 0 0-25.48 8.119 50.648 50.648 0 0 0-17.35 20.156V306.72h-31.08V53.075Z" fill="#D2E3FC"/><rect x="1459" y="515" width="218" height="50" rx="25" fill="#D2E3FC"/><rect x="1458" y="515" width="218" height="50" rx="25" fill="#1A73E8"/><rect x="851" y="515" width="218" height="50" rx="25" fill="#D2E3FC"/><rect x="851" y="515" width="122" height="50" rx="25" fill="#1A73E8"/><rect x="244" y="515" width="218" height="50" rx="25" fill="#D2E3FC"/><rect x="244" y="515" width="50" height="50" rx="25" fill="#1A73E8"/></svg>

<svg width="1920" height="1080" viewBox="0 0 1920 1080" fill="none" xmlns="http://www.w3.org/2000/svg">
<path d="M165.211 795.076H199.091V894.756H316.131V795.076H350.011V1030H316.131V923.036H199.091V1030H165.211V795.076Z" fill="#D2E3FC"/>
<path d="M400.695 778H433.455V911C439.335 903.72 446.335 897.84 455.015 893.36C463.695 888.88 473.215 886.92 484.135 886.92C502.335 886.92 516.615 891.96 526.695 901.76C536.775 911.56 542.095 928.64 542.095 952.44V1030H509.335V952.16C509.335 938.72 506.535 928.92 500.655 923.32C494.775 917.72 486.655 914.92 476.015 914.92C466.495 914.92 458.095 917.44 450.535 922.76C442.975 928.08 437.375 934.52 433.455 942.36V1030H400.695V778Z" fill="#3C4043"/>
<path d="M770.037 795.076H802.237V895.596H921.797V795.076H953.997V1030H921.797V922.196H802.237V1030H770.037V795.076Z" fill="#D2E3FC"/>
<path d="M1005.79 778H1036.87V878.52C1043.03 871.24 1050.59 865.36 1060.11 860.88C1069.63 856.4 1079.71 854.16 1090.63 854.16C1107.15 854.16 1120.31 859.2 1130.67 869C1141.03 878.8 1146.07 895.6 1146.07 918.84V1030H1114.99V918.56C1114.99 904.84 1111.91 895.04 1105.75 889.16C1099.59 883.28 1090.91 880.48 1079.71 880.48C1070.19 880.48 1061.51 883 1054.23 888.32C1046.95 893.64 1041.07 900.36 1036.87 908.48V1030H1005.79V778V778Z" fill="#3C4043"/>
<path d="M1379 795.076H1410.36V895.876H1530.76V795.076H1562.12V1030H1530.76V921.916H1410.36V1030H1379V795.076Z" fill="#D2E3FC"/>
<path d="M1614.48 778H1645V859.76C1651.16 852.2 1658.72 846.32 1667.4 841.84C1676.08 837.36 1686.16 835.12 1697.08 835.12C1714.44 835.12 1728.44 840.16 1738.8 849.96C1749.16 859.76 1754.2 876.28 1754.2 899.52V1030H1723.68V899.24C1723.68 885.52 1720.6 875.72 1714.44 869.56C1708.28 863.4 1699.6 860.6 1688.12 860.6C1678.32 860.6 1669.92 863.12 1662.36 868.44C1654.8 873.76 1649.2 880.48 1645 888.88V1030H1614.48V778V778Z" fill="#3C4043"/>
<path d="M168 127.55H200.196V200.621H319.18V127.55H350.255V305.046H319.18V226.657H200.196V305.046H168.841L168 127.55Z" fill="#3C4043"/>
<path d="M400.649 53.9229H431.164V155.269C437.033 147.76 444.491 141.641 453.001 137.351C461.709 133.067 471.293 130.863 480.997 130.912C496.279 130.066 511.274 135.298 522.711 145.469C528.44 152.284 532.731 160.187 535.329 168.703C537.927 177.218 538.779 186.17 537.83 195.022V305.047H508.153V194.742C509.179 184.058 505.962 173.398 499.196 165.066C491.997 158.86 482.64 155.742 473.158 156.388C464.042 156.185 455.105 158.934 447.68 164.226C440.258 169.383 434.36 176.443 430.603 184.664V305.047H400.088L400.649 53.9229Z" fill="#D2E3FC"/>
<path d="M771 71.1631H802.636V172.229H923.02V71.1631H954.376V306.051H923.02V197.986H802.636V306.051H771V71.1631Z" fill="#3C4043"/>
<path d="M1006.73 53.0762H1037.24V153.861C1043.53 146.209 1051.47 140.084 1060.48 135.945C1070.01 131.425 1080.44 129.126 1090.99 129.225C1105.68 128.763 1119.95 134.093 1130.75 144.063C1136.55 150.902 1140.93 158.836 1143.63 167.395C1146.32 175.953 1147.27 184.965 1146.43 193.897V305.882H1115.91V193.897C1116.56 183.722 1113.25 173.69 1106.67 165.901C1103.1 162.73 1098.93 160.304 1094.41 158.765C1089.9 157.227 1085.12 156.607 1080.35 156.942C1071.15 156.699 1062.11 159.449 1054.6 164.78C1047.1 169.931 1041.11 176.984 1037.24 185.217V307.001H1006.73V53.0762Z" fill="#D2E3FC"/>
<path d="M1379 51H1410.92V161.305H1531.02V51H1562.94V306.044H1531.02V187.621H1411.2V306.044H1379.28L1379 51Z" fill="#3C4043"/>
<path d="M1615.01 53.0752H1646.09V153.86C1652.26 146.063 1660.14 139.788 1669.12 135.517C1678.1 131.246 1687.94 129.092 1697.88 129.224C1705.47 128.812 1713.07 129.911 1720.23 132.458C1727.39 135.006 1733.97 138.95 1739.59 144.062C1745.35 150.923 1749.68 158.866 1752.33 167.424C1754.97 175.982 1755.88 184.983 1754.99 193.896V305.881H1724.2V193.896C1724.85 183.721 1721.54 173.689 1714.96 165.9C1711.42 162.764 1707.3 160.357 1702.83 158.819C1698.37 157.282 1693.64 156.644 1688.92 156.941C1679.78 156.84 1670.84 159.686 1663.44 165.06C1655.97 170.113 1649.97 177.071 1646.09 185.216V306.72H1615.01V53.0752Z" fill="#D2E3FC"/>
<rect x="1459" y="515" width="218" height="50" rx="25" fill="#D2E3FC"/>
<rect x="1458" y="515" width="218" height="50" rx="25" fill="#1A73E8"/>
<rect x="851" y="515" width="218" height="50" rx="25" fill="#D2E3FC"/>
<rect x="851" y="515" width="122" height="50" rx="25" fill="#1A73E8"/>
<rect x="244" y="515" width="218" height="50" rx="25" fill="#D2E3FC"/>
<rect x="244" y="515" width="50" height="50" rx="25" fill="#1A73E8"/>
</svg>
